packages/elvis-assets-icons/icons/svg/src/list.svg

<svg width="24" height="24" viewBox="0 0 24 24" fill="none" xmlns="http://www.w3.org/2000/svg">
<g clip-path="url(#clip0)">
<path fill-rule="evenodd" clip-rule="evenodd" d="M2.25 1.49542C1.83579 1.49542 1.5 1.83121 1.5 2.24542V3.74542C1.5 4.15964 1.83579 4.49542 2.25 4.49542H21.75C22.1642 4.49542 22.5 4.15964 22.5 3.74542V2.24542C22.5 1.83121 22.1642 1.49542 21.75 1.49542H2.25ZM0 2.24542C0 1.00278 1.00736 -0.00457764 2.25 -0.00457764H21.75C22.9926 -0.00457764 24 1.00278 24 2.24542V3.74542C24 4.98806 22.9926 5.99542 21.75 5.99542H2.25C1.00736 5.99542 0 4.98806 0 3.74542V2.24542Z" fill="black"/>
<path fill-rule="evenodd" clip-rule="evenodd" d="M2.25 10.4969C1.83579 10.4969 1.5 10.8327 1.5 11.2469V12.7469C1.5 13.1611 1.83579 13.4969 2.25 13.4969H21.75C22.1642 13.4969 22.5 13.1611 22.5 12.7469V11.2469C22.5 10.8327 22.1642 10.4969 21.75 10.4969H2.25ZM0 11.2469C0 10.0042 1.00736 8.99689 2.25 8.99689H21.75C22.9926 8.99689 24 10.0042 24 11.2469V12.7469C24 13.9895 22.9926 14.9969 21.75 14.9969H2.25C1.00736 14.9969 0 13.9895 0 12.7469V11.2469Z" fill="black"/>
<path fill-rule="evenodd" clip-rule="evenodd" d="M2.25 19.4969C1.83579 19.4969 1.5 19.8327 1.5 20.2469V21.7469C1.5 22.1611 1.83579 22.4969 2.25 22.4969H21.75C22.1642 22.4969 22.5 22.1611 22.5 21.7469V20.2469C22.5 19.8327 22.1642 19.4969 21.75 19.4969H2.25ZM0 20.2469C0 19.0042 1.00736 17.9969 2.25 17.9969H21.75C22.9926 17.9969 24 19.0042 24 20.2469V21.7469C24 22.9895 22.9926 23.9969 21.75 23.9969H2.25C1.00736 23.9969 0 22.9895 0 21.7469V20.2469Z" fill="black"/>
</g>
<defs>
<clipPath id="clip0">
<rect width="24" height="24" fill="white"/>
</clipPath>
</defs>
</svg>

<svg width="24" height="24" fill="none" xmlns="http://www.w3.org/2000/svg"><g clip-path="url(#clip0)" fill-rule="evenodd" clip-rule="evenodd" fill="#000"><path d="M2.25 1.495a.75.75 0 00-.75.75v1.5c0 .415.336.75.75.75h19.5a.75.75 0 00.75-.75v-1.5a.75.75 0 00-.75-.75H2.25zM0 2.245a2.25 2.25 0 012.25-2.25h19.5A2.25 2.25 0 0124 2.245v1.5a2.25 2.25 0 01-2.25 2.25H2.25A2.25 2.25 0 010 3.745v-1.5zM2.25 10.497a.75.75 0 00-.75.75v1.5c0 .414.336.75.75.75h19.5a.75.75 0 00.75-.75v-1.5a.75.75 0 00-.75-.75H2.25zm-2.25.75a2.25 2.25 0 012.25-2.25h19.5a2.25 2.25 0 012.25 2.25v1.5a2.25 2.25 0 01-2.25 2.25H2.25A2.25 2.25 0 010 12.747v-1.5zM2.25 19.497a.75.75 0 00-.75.75v1.5c0 .414.336.75.75.75h19.5a.75.75 0 00.75-.75v-1.5a.75.75 0 00-.75-.75H2.25zm-2.25.75a2.25 2.25 0 012.25-2.25h19.5a2.25 2.25 0 012.25 2.25v1.5a2.25 2.25 0 01-2.25 2.25H2.25A2.25 2.25 0 010 21.747v-1.5z"/></g><defs><clipPath id="clip0"><path fill="#fff" d="M0 0h24v24H0z"/></clipPath></defs></svg>
